src/assets/logos/MUNA.svg

<svg width="512" height="512" viewBox="0 0 512 512" fill="none" xmlns="http://www.w3.org/2000/svg">
    <path d="M512 261.006C512 265.659 512 270.311 511.458 274.963C511.458 279.034 510.915 282.523 510.373 286.013C509.83 294.154 508.745 302.296 507.118 310.438C506.575 314.508 505.491 317.998 504.948 321.487C501.151 337.189 496.269 351.727 489.759 366.266C488.132 370.337 486.504 373.826 484.335 377.315C479.995 386.038 475.113 394.18 469.688 402.322C467.518 406.392 464.806 409.882 461.551 413.371C455.041 422.094 448.532 430.236 440.937 437.796C437.14 441.867 433.343 445.356 429.003 448.845C419.781 457.568 409.474 465.128 398.625 471.525C392.116 475.596 385.606 479.667 379.096 482.575C349.803 497.695 316.713 505.837 281.996 505.837H229.919V14.4314C229.919 14.4314 245.651 14.4314 281.996 14.4314C319.426 14.4314 355.228 24.3176 386.691 41.764C393.201 45.2532 399.168 48.7426 405.135 52.8134C415.984 59.7919 425.748 67.9335 434.97 77.2382C438.768 80.7275 442.565 84.7983 445.82 88.2875C457.754 101.082 468.061 115.62 477.282 130.74C479.452 134.23 481.622 138.3 483.25 141.79C490.844 156.328 496.811 171.448 501.151 187.732C502.236 191.221 503.321 195.292 503.863 198.781C506.575 210.993 508.745 223.206 509.83 235.418C510.373 238.908 510.373 242.978 510.915 246.468C512 252.283 512 256.354 512 261.006Z" fill="#CC9007"/>
    <path d="M511.458 274.382C511.458 278.452 510.916 281.942 510.373 285.431H446.362V274.382H511.458Z" fill="#AA7A06"/>
    <path d="M507.117 310.438C506.575 314.509 505.49 317.998 504.948 321.488H426.29V310.438H507.117Z" fill="#AA7A06"/>
    <path d="M489.759 366.266C488.132 370.336 486.504 373.826 484.335 377.315H406.762V366.266H489.759Z" fill="#AA7A06"/>
    <path d="M469.688 402.321C467.518 406.392 464.806 409.881 461.551 413.371H381.267V402.321H469.688Z" fill="#AA7A06"/>
    <path d="M441.48 438.378C437.683 442.449 433.886 445.938 429.546 449.427H354.144V438.378H441.48Z" fill="#AA7A06"/>
    <path d="M399.71 472.107C393.201 476.177 386.691 480.248 380.181 483.156H315.628V472.107H399.71Z" fill="#AA7A06"/>
    <path d="M511.458 248.212H442.023V237.163H510.373C510.915 240.652 511.458 244.723 511.458 248.212Z" fill="#AA7A06"/>
    <path d="M504.947 199.944H434.427V188.895H501.692C502.777 192.384 503.862 196.455 504.947 199.944Z" fill="#AA7A06"/>
    <path d="M483.792 142.952H413.272V131.903H477.825C479.995 135.392 481.622 138.881 483.792 142.952Z" fill="#AA7A06"/>
    <path d="M446.362 88.8698H367.705V77.8204H435.513C439.31 81.3097 443.107 84.7989 446.362 88.8698Z" fill="#AA7A06"/>
    <path d="M405.677 53.395H329.733V42.3457H387.776C393.201 45.2534 399.71 49.3242 405.677 53.395Z" fill="#AA7A06"/>
    <path d="M459.924 261.007C459.924 396.507 357.398 507 230.462 507C103.525 507 0.999878 397.088 0.999878 261.007C0.999878 125.507 103.525 15.0134 230.462 15.0134C357.398 15.0134 459.924 124.925 459.924 261.007Z" fill="#FFD000"/>
    <path d="M420.866 261.006C420.866 373.826 335.7 465.128 230.462 465.128C125.224 465.128 40.0573 373.826 40.0573 261.006C40.0573 148.187 125.224 56.8842 230.462 56.8842C335.7 56.8842 420.866 148.187 420.866 261.006Z" fill="#FCBC00"/>
    <path d="M246.193 447.683C140.955 447.683 55.7888 356.38 55.7888 243.56C55.7888 191.803 74.2325 144.116 104.068 108.061C65.0107 145.279 40.0573 199.945 40.0573 260.425C40.0573 373.245 125.224 464.547 230.462 464.547C286.878 464.547 337.87 437.796 372.587 395.925C338.955 428.492 295.015 447.683 246.193 447.683Z" fill="#C57F0C"/>
    <path d="M223.086 309.2V248.756C223.086 215.118 247.793 186.81 279.16 186.018C311.471 185.197 338 213.137 338 247.602V300.835C338 305.457 334.508 309.2 330.197 309.2H223.086V309.2Z" fill="#CC9007"/>
    <path fill-rule="evenodd" clip-rule="evenodd" d="M214.931 248.756V309.2H230.153C230.139 309.201 230.125 309.201 230.111 309.201H123V248.756C123 215.119 147.707 186.81 179.074 186.018C198.517 185.524 215.866 195.444 226.601 210.934C219.263 221.521 214.931 234.671 214.931 248.756Z" fill="#CC9007"/>
</svg>

<svg fill="none" height="512" width="512" xmlns="http://www.w3.org/2000/svg"><path d="M512 261.006c0 4.653 0 9.305-.542 13.957 0 4.071-.543 7.56-1.085 11.05a188.58 188.58 0 0 1-3.255 24.425c-.543 4.07-1.627 7.56-2.17 11.049-3.797 15.702-8.679 30.24-15.189 44.779-1.627 4.071-3.255 7.56-5.424 11.049-4.34 8.723-9.222 16.865-14.647 25.007-2.17 4.07-4.882 7.56-8.137 11.049-6.51 8.723-13.019 16.865-20.614 24.425-3.797 4.071-7.594 7.56-11.934 11.049-9.222 8.723-19.529 16.283-30.378 22.68-6.509 4.071-13.019 8.142-19.529 11.05-29.293 15.12-62.383 23.262-97.1 23.262h-52.077V14.431h52.077c37.43 0 73.232 9.887 104.695 27.333 6.51 3.49 12.477 6.979 18.444 11.05 10.849 6.978 20.613 15.12 29.835 24.424 3.798 3.49 7.595 7.56 10.85 11.05 11.934 12.794 22.241 27.332 31.462 42.452 2.17 3.49 4.34 7.56 5.968 11.05 7.594 14.538 13.561 29.658 17.901 45.942 1.085 3.489 2.17 7.56 2.712 11.049 2.712 12.212 4.882 24.425 5.967 36.637.543 3.49.543 7.56 1.085 11.05C512 252.283 512 256.354 512 261.006z" fill="#cc9007"/><path d="M511.458 274.382c0 4.07-.542 7.56-1.085 11.049h-64.011v-11.049zm-4.341 36.056c-.542 4.071-1.627 7.56-2.169 11.05H426.29v-11.05zm-17.358 55.828c-1.627 4.07-3.255 7.56-5.424 11.049h-77.573v-11.049zm-20.071 36.055c-2.17 4.071-4.882 7.56-8.137 11.05h-80.284v-11.05zm-28.208 36.057c-3.797 4.071-7.594 7.56-11.934 11.049h-75.402v-11.049zm-41.77 33.729c-6.509 4.07-13.019 8.141-19.529 11.049h-64.553v-11.049zm111.748-223.895h-69.435v-11.049h68.35c.542 3.489 1.085 7.56 1.085 11.049zm-6.511-48.268h-70.52v-11.049h67.265c1.085 3.489 2.17 7.56 3.255 11.049zm-21.155-56.992h-70.52v-11.049h64.553c2.17 3.489 3.797 6.978 5.967 11.049zm-37.43-54.082h-78.657V77.82h67.808c3.797 3.49 7.594 6.979 10.849 11.05zm-40.685-35.475h-75.944v-11.05h58.043c5.425 2.908 11.934 6.98 17.901 11.05z" fill="#aa7a06"/><path d="M459.924 261.007c0 135.5-102.526 245.993-229.462 245.993C103.525 507 1 397.088 1 261.007c0-135.5 102.525-245.994 229.462-245.994 126.936 0 229.462 109.912 229.462 245.994z" fill="#ffd000"/><path d="M420.866 261.006c0 112.82-85.166 204.122-190.404 204.122S40.057 373.826 40.057 261.006c0-112.819 85.167-204.122 190.405-204.122s190.404 91.303 190.404 204.122z" fill="#fcbc00"/><path d="M246.193 447.683c-105.238 0-190.404-91.303-190.404-204.123 0-51.757 18.444-99.444 48.279-135.499-39.057 37.218-64.01 91.884-64.01 152.364 0 112.82 85.166 204.122 190.404 204.122 56.416 0 107.408-26.751 142.125-68.622-33.632 32.567-77.572 51.758-126.394 51.758z" fill="#c57f0c"/><path d="M223.086 309.2v-60.444c0-33.638 24.707-61.946 56.074-62.738 32.311-.821 58.84 27.119 58.84 61.584v53.233c0 4.622-3.492 8.365-7.803 8.365z" fill="#cc9007"/><path clip-rule="evenodd" d="M214.931 248.756V309.2h15.222l-.042.001H123v-60.445c0-33.637 24.707-61.946 56.074-62.738 19.443-.494 36.792 9.426 47.527 24.916-7.338 10.587-11.67 23.737-11.67 37.822z" fill="#cc9007" fill-rule="evenodd"/></svg>
